X: 8981
T: Cutting Bracken
R: strathspey
M: 4/4
K: Aminor
M:2/4
|:A2 a2|ge g2|ed BA|GA B/A/G|
A2 a2|ge g2|ed BG|1 AB cB:|2 A2 AB/d/|
|:ed BA|GA Bd|ed BA|B2 B2|
ed BA|GA Bd|ed BG|1 A2 AB/d/:|2 A2 A2|

